X:1
T: The Royal Paisley Volunteers March
T: DUETTS for Two Flutes
M: C|
B: James Campbell's Collection 1798
Z: source from Highland Music Trust, chords by Gary Whaley
L: 1/8
K:D
V:T1
[|: "D"d2 d>d d2 e>d|f>dc>e d2 A2|f2 f>f f2 (g>g)|a>bag g2 f2|
"G"b3 g d'bd'b|"D"a3 f dfad'|"G"{^a}b2 ge d2 "A"Te>de| "D" d2 d>d d4 :|]
[|:"A"{=d}e3 f (ag)(fe)| {^e}f3 g (ba)(gf) |{=d}e3 f (ag)(fe) |"D" f2 d>d d4|
|"G" b3 c' {e'}d'2 c'b|"D"afga "G"bc'd'g| "G"(g/f/e/f/) {a}gf/e/ "A" d2 c>B |"D" d2 d>d d4 :|]
V:T2
[|: F2 F>F F2 G2 | A2 G2 F4 | d2 d>d d2 e>e | f>gfe e2d2 |
G3 B Ggbg |f3 D FAFf| g2 BG F2 E2 | F2 F>F F4 :|]
[|: cAcd {f}e2 dA | dAde {g}f2 ed |GFGA B3 c | d2 F>F F4 |
G2 g2 f2 ag | fdBA GABc |e/d/c/d/ {c}BA/G/ F2 E2 | d2 D>D D4 :|]

 